src/assets/outline/RecoveryConvert.svg

<svg width="24" height="24" viewBox="0 0 24 24"  xmlns="http://www.w3.org/2000/svg">
<path d="M11.42 19.2504H8.69C6 19.2504 4.75 18.0004 4.75 15.3104V12.5804C4.75 9.90039 6 8.65039 8.69 8.65039H11.42C14.1 8.65039 15.36 9.90039 15.36 12.5904V15.3204C15.35 18.0004 14.1 19.2504 11.42 19.2504ZM8.69 10.1504C6.82 10.1504 6.25 10.7204 6.25 12.5904V15.3204C6.25 17.1904 6.82 17.7604 8.69 17.7604H11.42C13.29 17.7604 13.86 17.1904 13.86 15.3204V12.5904C13.86 10.7204 13.29 10.1504 11.42 10.1504H8.69Z" />
<path d="M15.3099 15.35H14.5999C14.1899 15.35 13.8499 15.01 13.8499 14.6V12.58C13.8499 10.71 13.2799 10.14 11.4099 10.14H9.3999C8.9899 10.14 8.6499 9.8 8.6499 9.39V8.69C8.6499 6.01 9.8999 4.75 12.5899 4.75H15.3199C17.9999 4.75 19.2599 6 19.2599 8.69V11.42C19.2499 14.1 17.9999 15.35 15.3099 15.35ZM10.1499 8.65H11.4199C14.0999 8.65 15.3599 9.9 15.3599 12.59V13.86C17.1999 13.85 17.7599 13.28 17.7599 11.42V8.69C17.7599 6.82 17.1899 6.25 15.3199 6.25H12.5899C10.7299 6.25 10.1599 6.81 10.1499 8.65Z" />
<path d="M15.0002 22.7502C14.7302 22.7502 14.4802 22.6002 14.3502 22.3702C14.2202 22.1302 14.2202 21.8502 14.3602 21.6102L15.4102 19.8602C15.6202 19.5002 16.0802 19.3902 16.4402 19.6002C16.8002 19.8102 16.9102 20.2702 16.7002 20.6302L16.4302 21.0802C19.1902 20.4302 21.2602 17.9502 21.2602 14.9902C21.2602 14.5802 21.6002 14.2402 22.0102 14.2402C22.4202 14.2402 22.7602 14.5802 22.7602 14.9902C22.7502 19.2702 19.2702 22.7502 15.0002 22.7502Z" />
<path d="M2 9.75C1.59 9.75 1.25 9.41 1.25 9C1.25 4.73 4.73 1.25 9 1.25C9.27 1.25 9.52 1.4 9.65 1.63C9.78 1.87 9.78 2.15 9.64 2.39L8.59 4.14C8.38 4.49 7.92 4.61 7.56 4.39C7.21 4.18 7.09 3.72 7.31 3.36L7.58 2.91C4.81 3.56 2.75 6.04 2.75 9C2.75 9.41 2.41 9.75 2 9.75Z" />
</svg>

<?xml version="1.0" encoding="UTF-8"?>
<svg width="24" height="24" viewBox="0 0 24 24" xmlns="http://www.w3.org/2000/svg">
 <path d="m11.42 19.25h-2.73c-2.69 0-3.94-1.25-3.94-3.94v-2.73c0-2.68 1.25-3.93 3.94-3.93h2.73c2.68 0 3.94 1.25 3.94 3.94v2.73c-0.01 2.68-1.26 3.93-3.94 3.93zm-2.73-9.1c-1.87 0-2.44 0.57-2.44 2.44v2.73c0 1.87 0.57 2.44 2.44 2.44h2.73c1.87 0 2.44-0.57 2.44-2.44v-2.73c0-1.87-0.57-2.44-2.44-2.44h-2.73z"/>
 <path d="m15.31 15.35h-0.71c-0.41 0-0.75-0.34-0.75-0.75v-2.02c0-1.87-0.57-2.44-2.44-2.44h-2.01c-0.41 0-0.75-0.34-0.75-0.75v-0.7c0-2.68 1.25-3.94 3.94-3.94h2.73c2.68 0 3.94 1.25 3.94 3.94v2.73c-0.01 2.68-1.26 3.93-3.95 3.93zm-5.16-6.7h1.27c2.68 0 3.94 1.25 3.94 3.94v1.27c1.84-0.01 2.4-0.58 2.4-2.44v-2.73c0-1.87-0.57-2.44-2.44-2.44h-2.73c-1.86 0-2.43 0.56-2.44 2.4z"/>
 <path d="m15 22.75c-0.27 0-0.52-0.15-0.65-0.38-0.13-0.24-0.13-0.52 0.01-0.76l1.05-1.75c0.21-0.36 0.67-0.47 1.03-0.26s0.47 0.67 0.26 1.03l-0.27 0.45c2.76-0.65 4.83-3.13 4.83-6.09 0-0.41 0.34-0.75 0.75-0.75s0.75 0.34 0.75 0.75c-0.01 4.28-3.49 7.76-7.76 7.76z"/>
 <path d="M2 9.75C1.59 9.75 1.25 9.41 1.25 9C1.25 4.73 4.73 1.25 9 1.25C9.27 1.25 9.52 1.4 9.65 1.63C9.78 1.87 9.78 2.15 9.64 2.39L8.59 4.14C8.38 4.49 7.92 4.61 7.56 4.39C7.21 4.18 7.09 3.72 7.31 3.36L7.58 2.91C4.81 3.56 2.75 6.04 2.75 9C2.75 9.41 2.41 9.75 2 9.75Z"/>
</svg>
